X:1
T:Easter Snow
L:1/8
Q:3/8=40
M:9/8
I:linebreak $
K:G
V:1 treble 
V:1
 g2 f e2 d d2 e/f/ | g2 e d>ed/B/ d2 e | G6 G2 A/B/ | c2 B/A/ B>AB/c/ d2 B/G/ |1 A3 G6- | G x8 :|2 %6
 A3 G6- |$ G6 d2 e/f/ || g2 a b2 a g2 g/a/ | b2 a g>ag/e/ g2 g/a/ | b2 a g>ag/e/ d>ed/B/ | %11
 d e2 G6 |$ g2 f e3 d2 e/f/ | g2 e d2 B d e2 | G6 G2 A/B/ | c2 B/A/ B>AB/c/ d2 B/G/ | A2 G G6- | %17
 G x8 || %18
